X:10020028
T:Da\~ns Kef K (bal)  G
G:Kazimodal
R:Bal da\~ns kef
C:Traditionnel, arrangement Ronan Keryell http://kazimodal.trad.org
M:12/8
P:A3
K:G
P:A
Q:3/8=90
|: "G"G2 G "Em"G2 A "Bm"B2 B B2 c |1 "Am"d2 e "D"d2 B ABA "G"G2 :|2\
	"Am"d2 e "D"d2 B ABA "G"G3 ||
Q:3/8=164
|: "G"B3 ""A2 G F2 G "D"A3 | ABc ""B2 A "G"B2 c d2 G |\
	"Em"B3 "Am"A3 GFG "D"A3 | ABc ""B2 ""A "C"G3 "G"G3 :|

%%newpage
